public/avatar/item0/29.svg

<svg xmlns:xlink="http://www.w3.org/1999/xlink" height="58.65" width="49.15" xmlns="http://www.w3.org/2000/svg"><use height="4.8" transform="translate(11.35 33.3)" width="25" xlink:href="#a"/><defs><g id="a" fill-rule="evenodd"><path d="M10.4 15.2q2.4-.05 1.65 2.35-.7 2.45-3 2.45-.95-.05-1.7-1.05-.75-.95-.5-1.8.45-1.8 3.55-1.95" fill="#fbff00" transform="translate(12.75 -15.2)"/><path d="M6.85 17.15q.45-1.8 3.55-1.95 1.15 0 1.6.7-2.15.45-5.15 2v-.75m5.3.05q-.5 2.8-3.1 2.8L8 19.6l4.15-2.4" fill="red" transform="translate(12.75 -15.2)"/><path d="M-12.6 17.55q-.7-2.4 1.65-2.35 3.15.15 3.6 1.95.25.85-.5 1.8-.8 1-1.75 1.05-2.25 0-3-2.45" fill="#fbff00" transform="translate(12.75 -15.2)"/><path d="M-7.35 17.15v.75q-3.2-1.6-5.15-2 .4-.7 1.55-.7 3.15.15 3.6 1.95m-5.3.05 4.15 2.4-1.1.4q-2.65 0-3.05-2.8" fill="red" transform="translate(12.75 -15.2)"/></g></defs></svg>

<?xml version="1.0" encoding="UTF-8" standalone="no"?>
<svg xmlns:xlink="http://www.w3.org/1999/xlink" height="58.65px" width="49.15px" xmlns="http://www.w3.org/2000/svg">
  <g transform="matrix(1.0, 0.0, 0.0, 1.0, 24.1, 18.1)">
    <use height="4.8" transform="matrix(1.0, 0.0, 0.0, 1.0, -12.75, 15.2)" width="25.0" xlink:href="#shape0"/>
  </g>
  <defs>
    <g id="shape0" transform="matrix(1.0, 0.0, 0.0, 1.0, 12.75, -15.2)">
      <path d="M10.4 15.2 Q12.8 15.15 12.05 17.55 11.35 20.0 9.05 20.0 8.1 19.95 7.35 18.95 6.6 18.0 6.85 17.15 7.3 15.35 10.4 15.2" fill="#fbff00" fill-rule="evenodd" stroke="none"/>
      <path d="M6.85 17.15 Q7.3 15.35 10.4 15.2 11.55 15.2 12.0 15.9 9.85 16.35 6.85 17.9 L6.85 17.15" fill="#ff0000" fill-rule="evenodd" stroke="none"/>
      <path d="M12.15 17.2 Q11.65 20.0 9.05 20.0 L8.0 19.6 12.15 17.2" fill="#ff0000" fill-rule="evenodd" stroke="none"/>
      <path d="M-12.6 17.55 Q-13.3 15.15 -10.95 15.2 -7.8 15.35 -7.35 17.15 -7.1 18.0 -7.85 18.95 -8.65 19.95 -9.6 20.0 -11.85 20.0 -12.6 17.55" fill="#fbff00" fill-rule="evenodd" stroke="none"/>
      <path d="M-7.35 17.15 L-7.35 17.9 Q-10.55 16.3 -12.5 15.9 -12.1 15.2 -10.95 15.2 -7.8 15.35 -7.35 17.15" fill="#ff0000" fill-rule="evenodd" stroke="none"/>
      <path d="M-12.65 17.2 L-8.5 19.6 -9.6 20.0 Q-12.25 20.0 -12.65 17.2" fill="#ff0000" fill-rule="evenodd" stroke="none"/>
    </g>
  </defs>
</svg>
